X:1
T:Jazer, CM
T:Jazer, CM
T:William Batchelder Bradbury (1816-1868)
T:Public Domain Courtesy of the Cyber Hymnal™
C:William Batchelder Bradbury (1816-1868)
Z:Public Domain
Z:Courtesy of the Cyber Hymnal™
%%score ( 1 2 ) ( 3 4 )
L:1/8
Q:1/4=110
M:3/4
K:G
V:1 treble 
V:2 treble 
V:3 bass 
V:4 bass 
V:1
 [Dd]2 | (d3 c) [DB]2 | (B3 A) [DG]2 | ([EG]3 [DF]) [CE]2 | [B,D]4 D2 | (E3 F) [DG]2 | %6
 [Dc]4 [DB]2 | (B2 A2) (Bc) | (d3 c) [DB]2 | ([GB]3 [DA]) [DG]2 | (c3 d) [Ge]2 | [Gd]4 [GB]2 | %12
 ([EA]3 [^GB]) [Ac]2 | [GB]4 [FA]2 | G4 |] %15
V:2
 x2 | D4 x2 | D4 x2 | x6 | x4 D2 | C4 x2 | x6 | D4 D2 | D4 x2 | x6 | G4 x2 | x6 | x6 | x6 | G4 |] %15
V:3
 [G,B,]2 | (B,3 A,) G,2 | (D3 C) [G,,B,]2 | (C2 G,2) [C,G,]2 | [G,,G,]4 [B,,G,]2 | %5
 (G,3 A,) [B,,G,]2 | [A,,F,]4 [G,,G,]2 | (G,2 F,2) (G,A,) | (B,3 A,) G,2 | (D3 C) [G,B,]2 | %10
 ([E,C]3 [D,B,]) [C,C]2 | [B,,G,]4 [G,,D]2 | ([C,C]3 [B,,D]) [A,,E]2 | [D,D]4 [D,C]2 | [G,,B,]4 |] %15
V:4
 x2 | G,4 G,2 | G,4 x2 | C,4 x2 | x6 | C,4 x2 | x6 | D,4 G,2 | G,4 G,2 | G,4 x2 | x6 | x6 | x6 | %13
 x6 | x4 |] %15

